X: 249
T: Winter Morning (reel)
C: BB 12/06
N: 232234
L: 1/8
M: 4/4
R: reel
Q: 380
K: G
DC | "G"B,DGA B2 AG |"D"FGAB "C"c2 Bc |"G"dBBd "Am7"cAEF | "G"GABG "D"D3C |
"G"B,DGA B2 AG |"D7"FGAB cdef |"G"gdBd "Am7"ecAG |"D"FADF "G"G2 :|
ef | "G"gedg "D"a2 ba |"Em"gfge B2 AB |"C"c2ec "D"d^cdf |"G"gbge "D"d2ef |
"G"gedg "D"afdf |"G"gabg d2 Bd |"C"c2ec "G"Bdgd |"D7"cAFA "G"G2 :|
%%%%%%%%%%%%%%
